packages/core/src/svgs/tokens/mono/LAND.svg

<svg width="24" height="24" viewBox="0 0 24 24" fill="none" xmlns="http://www.w3.org/2000/svg">
<path d="M5.51439 8.35185V15.7563L12 19.5288V21.9999L3.35156 16.8649V7.13525L5.51439 8.35185Z" fill="white"/>
<path d="M7.67603 9.56836V14.4322L11.9996 16.8641V12.0003L7.67603 9.56836Z" fill="white"/>
<path d="M7.67603 4.58306L12.0537 2L20.6481 7.13506L11.9996 11.9999L7.67603 9.56784V4.58306Z" fill="white"/>
<path d="M5.51439 5.85889L3.35156 7.1351L5.51439 8.35169V5.85889Z" fill="white"/>
<path d="M12.004 19.527L12.0054 21.9999L20.6485 16.8649V7.13525L12 12L12.0026 16.863L18.4867 13.0807V15.7832L12.004 19.527Z" fill="white"/>
</svg>

<svg xmlns="http://www.w3.org/2000/svg" width="24" height="24" fill="none" viewBox="0 0 24 24">
    <path fill="#fff" d="M5.514 8.352v7.404L12 19.53V22l-8.648-5.134v-9.73z"/>
    <path fill="#fff" d="M7.676 9.568v4.864L12 16.864V12z"/>
    <path fill="#fff" d="M7.676 4.583 12.054 2l8.594 5.135L12 12 7.676 9.568zM5.514 5.859 3.352 7.135l2.162 1.217zm6.49 13.668L12.005 22l8.643-5.135v-9.73L12 12l.003 4.863 6.484-3.782v2.702z"/>
</svg>
